X:1
T:James Gibb editions
T:Psalm 110 (Becker) - Schütz
%%score [ ( 1 2 ) ( 3 4 ) ]
L:1/8
Q:1/4=98
M:2/2
K:C
V:1 treble nm="Soprano Alto"
V:2 treble 
V:3 bass nm="Tenor Bass"
V:4 bass 
V:1
"^Cornelius Becker\n(1561-1604)""^Heinrich Schütz\n(1585-1672)""^Psalm 110, SWV 208" D4 | %1
w: ~Der|
w: der|
 F2 E2 F2 G2 | A4 A2 D2 | A2 d2 c2 B2 | A4 :|[M:2/2] G4 | A2 B2 c2 A2 x2 | G4 E2 C2 | %8
w: Herr sprach zu mein'm|Her- ren: Setz|dich zur Rech- ten|mein,|der|Herr- schaft sollst du|pfle- gen, ich|
w: Thron gött- li- cher|Eh- ren soll|dir ge- ge- ben|sein,||||
 D2 E2 F2 D2 x2 | E4 C2 c2 | d2 D2 F2 E2 x4 | D8 |] %12
w: will die Fein- de|le- gen zum|Schem'l der Fü- ße|dein.|
w: ||||
V:2
 A,4 | D2 ^C2 D2 E2 | =C4 C2 B,2 | A,2 A,2 E2 E2 | E4 :|[M:2/2] E4 | F2 F2 G2 F2 x2 | D4 C2 G,2 | %8
 B,2 C2 C2 B,2 x2 | C4 G,2 A,2 | F,2 _B,2 A,2 A,2 x4 | A,8 |] %12
V:3
 F,4 | A,2 A,2 A,2 C2 | A,4 A,2 G,2 | C2 F,2 A,2 ^G,2 | A,4 :| %5
[M:2/2]"^2. Gott wird aus Zion senden das Szepter deines Reichs,\ndas Wort an allen Enden gepredigt wird mit Fleiß,\ndein Gegenwart man spüret, wenn du kräftig regierest,\nerlangst an Feinden Preis.\n\n3. Wenn du den Sieg erhalten, wird dein Volk williglich\nDir opfern manigfalte, geschmücket heiliglich,\ndein Kinder auserkoren werden dir neugeboren,\ndem Tau des Himmels gleich.\n\n4. Gott hat ein'n Eid geschworen, wird ihn gereuen nicht,\ner hat dich auserkoren zum Priester ewiglich.\nDein Segen zu uns wende, Herr, ohn Anfang und Ende,\nbleib bei uns stetiglich.\n\n5. Der Herr zu deiner Rechten im Zorn wird grimmiglich\nZerschmettern alle Schlechten und üben sein Gericht,\ner wird die König schlagen, die Heiden auch verjagen,\ndie Feind macht er zunicht.\n\n6. Wann er nun hat getrunken vom Angstbach an dem Weg,\nins Kreuz tief ist gesunken, ja auch in Tod gelegt,\nwird er erweckt zum Leben, empor hoch sein Haupt heben\nund herrschen ewiglich." C4 | %6
 C2 D2 E2 C4 | B,2 C2 E,2 G,2 | G,2 A,2 G,2 G,4 | E,2 E,2 D,2 G,2 | (F,/E,/ D,2) ^C, D,8 | x8 |] %12
V:4
 D,4 | D,2 A,,2 D,2 C,2 | F,4 F,2 G,2 | F,2 D,2 A,,2 E,2 | A,,4 :|[M:2/2] C,4 | %6
 F,2 D,2 C,2 F,2 x2 | G,4 C,2 C,2 | G,,2 C,2 F,,2 G,,2 x2 | C,4 C,2 A,,2 | _B,,2 G,,2 D,2 A,,2 x4 | %11
 D,8 |] %12

